src/components/Icon/assets/refresh.svg

<svg xmlns="http://www.w3.org/2000/svg" width="24" height="24" viewBox="0 0 24 24">
    <path fill="#65676A" fill-rule="evenodd" d="M20 12c0 4.411-3.589 8-8 8s-8-3.589-8-8 3.589-8 8-8c2.117 0 4.107.819 5.613 2.303L15.52 8.396c-.315.315-.093.854.353.854H21.5c.276 0 .5-.224.5-.5V3.123c0-.446-.539-.668-.854-.353l-2.119 2.119C17.143 3.027 14.651 2 12 2 6.486 2 2 6.486 2 12s4.486 10 10 10 10-4.486 10-10h-2z"/>
</svg>

<svg width="24" height="24" viewBox="0 0 24 24" fill="none" xmlns="http://www.w3.org/2000/svg">
<path fill-rule="evenodd" clip-rule="evenodd" d="M20 12C20 16.411 16.411 20 12 20C7.589 20 4 16.411 4 12C4 7.589 7.589 4 12 4C14.117 4 16.107 4.819 17.613 6.303L15.52 8.396C15.205 8.711 15.427 9.25 15.873 9.25H21.5C21.776 9.25 22 9.026 22 8.75V3.123C22 2.677 21.461 2.455 21.146 2.77L19.027 4.889C17.143 3.027 14.651 2 12 2C6.486 2 2 6.486 2 12C2 17.514 6.486 22 12 22C17.514 22 22 17.514 22 12H20Z" fill="#65676A"/>
</svg>
